X: 34
T:Joyful Hour (#234), The
M:4/4
L:1/8
S:Capt. F. O'Neill
R:Reel
K:F
ABAG FGAB|cdcA BdcB|ABAG FGAg|f"tr"de^c Ad d2:||
defg a"tr"fg"tr"e|f"tr"dcA FGAc|defg a"tr"fg"tr"e|f"tr"de"tr"^c Ad d2|
defg a2 g"tr"e|(3fga g"tr"e f2 df|a"tr"fg"tr"e abag|
f"tr"de"tr"^c Ad d2||

